Images/pencil.svg

<svg width="225" height="709" viewBox="0 0 225 709" fill="none" xmlns="http://www.w3.org/2000/svg">
<path d="M170.067 116.307L177.702 124.297L188.455 126.909L180.459 134.561L177.831 145.308L170.201 137.301L159.448 134.689L167.439 127.054L170.067 116.307Z" fill="#F5F0EC"/>
<path d="M142.1 139.462L145.927 143.468L151.301 144.765L147.311 148.589L145.995 153.968L142.168 149.962L136.8 148.649L140.79 144.824L142.1 139.462Z" fill="#F5F0EC"/>
<path d="M60.4594 179.65L61.6901 187.449L66.7783 193.166L59.2818 194.709L53.6395 200.21L52.388 192.422L47.2998 186.705L54.7963 185.162L60.4594 179.65Z" fill="#F5F0EC"/>
<path d="M180.65 152.249L181.47 156.799L184.628 160.175L180.078 160.995L176.702 164.153L175.883 159.603L172.724 156.227L177.274 155.408L180.65 152.249Z" fill="#F5F0EC"/>
<path fill-rule="evenodd" clip-rule="evenodd" d="M167.682 345.135L64.8795 347.264L63.9797 311.343C78.5943 321.571 96.4775 327.374 115.607 326.987C134.932 326.575 152.652 319.928 166.784 308.958L167.713 345.148L167.682 345.135Z" fill="#0B3048"/>
<path fill-rule="evenodd" clip-rule="evenodd" d="M115.575 326.973C96.4452 327.36 78.562 321.556 63.9474 311.328L62.9599 273.428L165.772 271.193L166.752 308.944C152.588 319.9 134.886 326.591 115.575 326.973Z" fill="#E53914"/>
<path fill-rule="evenodd" clip-rule="evenodd" d="M172.102 516.537C165.54 510.689 144.609 501.935 120.313 502.434C95.9895 502.994 75.5466 512.657 69.2897 518.772L64.8659 347.293L167.668 345.164L172.071 516.524L172.102 516.537Z" fill="#E53914"/>
<path fill-rule="evenodd" clip-rule="evenodd" d="M223.326 515.415C210.094 496.089 183.351 501.739 172.102 516.539L167.627 344.086L165.722 269.633L191.328 269.087L194.836 268.979L216.947 268.51C217.589 293.367 218.231 318.224 218.873 343.081C219.036 349.416 219.217 355.794 219.349 362.115C220.645 413.226 221.986 464.321 223.282 515.432L223.326 515.415Z" fill="#0B3048"/>
<path fill-rule="evenodd" clip-rule="evenodd" d="M33.6214 274.093L11.7666 274.566L10.1368 211.222L31.9164 210.753C28.3263 220.603 26.4818 231.256 26.7569 242.365C27.0398 253.623 29.4495 264.313 33.6349 274.063L33.6214 274.093Z" fill="#0B3048"/>
<path fill-rule="evenodd" clip-rule="evenodd" d="M200.144 238.788C200.423 249.971 198.551 260.686 194.917 270.553L165.772 271.193L62.9599 273.428L33.6042 274.048C29.4323 264.269 27.0091 253.609 26.7262 242.35C26.4511 231.242 28.3091 220.558 31.8857 210.739L112.617 208.987L112.679 209.014L189.704 207.32L193.274 207.24C197.397 216.962 199.803 227.577 200.082 238.761L200.144 238.788Z" fill="#F08011"/>
<path fill-rule="evenodd" clip-rule="evenodd" d="M215.384 206.77L193.348 207.236L189.779 207.317L164.173 207.863L112.767 208.981L112.705 208.954L61.361 210.098L10.1807 211.205L10.1864 211.024L8.96659 162.84C8.71511 152.767 15.4025 143.325 26.8943 135.518C29.2983 133.9 31.901 132.333 34.7197 130.861C51.5972 121.939 75.5168 115.927 102.302 114.874C103.567 114.843 104.815 114.769 106.111 114.752C107.557 114.728 108.959 114.721 110.406 114.697C111.835 114.629 113.281 114.605 114.696 114.567C116.037 114.533 117.408 114.513 118.765 114.523C145.601 114.444 169.806 119.435 187.123 127.7C189.997 129.036 192.698 130.515 195.159 132.036C206.907 139.32 213.984 148.435 214.232 158.432L214.283 161.165L215.459 206.767L215.384 206.77Z" fill="#482F1E"/>
<path fill-rule="evenodd" clip-rule="evenodd" d="M69.2897 518.772C57.2594 504.588 30.2912 500.105 18.0778 519.865C16.7797 469.01 15.4545 418.215 14.1429 367.39C13.9799 361.056 13.817 354.721 13.654 348.387C13.0236 323.755 12.3797 299.153 11.7802 274.534L33.635 274.062L62.9741 273.397L63.9474 311.328L69.2716 518.728L69.2897 518.772Z" fill="#0B3048"/>
<path fill-rule="evenodd" clip-rule="evenodd" d="M172.102 516.537L139.871 680.78L154.857 680.44C196.766 610.252 219.547 555.872 223.168 517.285L223.117 515.139C209.819 496.296 183.301 501.935 172.102 516.537Z" fill="#FEEABF"/>
<path fill-rule="evenodd" clip-rule="evenodd" d="M139.884 680.749L172.116 516.507C165.541 510.689 144.623 501.905 120.327 502.404C96.048 502.947 75.5608 512.627 69.3038 518.742L109.926 681.398L139.898 680.718L139.884 680.749Z" fill="#FACE8D"/>
<path fill-rule="evenodd" clip-rule="evenodd" d="M109.911 681.427L69.2888 518.771C57.3375 504.659 30.5513 500.182 18.2433 519.571C18.1894 519.694 18.118 519.772 18.0332 519.881C23.063 558.386 48.6937 612.348 94.8946 681.754L109.88 681.414L109.911 681.427Z" fill="#F5BE65"/>
<path fill-rule="evenodd" clip-rule="evenodd" d="M139.884 680.748L125.024 708.209C134.788 708.359 144.335 699.111 154.869 680.408L139.884 680.748Z" fill="#595B51"/>
<path fill-rule="evenodd" clip-rule="evenodd" d="M125.011 708.24L139.884 680.749L109.912 681.428L125.011 708.24Z" fill="#33343A"/>
<path fill-rule="evenodd" clip-rule="evenodd" d="M125.011 708.24L109.912 681.428L94.9264 681.768C105.952 699.246 115.61 708.102 125.028 708.284L125.011 708.24Z" fill="#0F1817"/>
<path fill-rule="evenodd" clip-rule="evenodd" d="M200.144 238.788C200.423 249.971 198.551 260.686 194.917 270.553L62.9614 273.428L61.3181 210.114L112.649 209.001L112.711 209.028L193.319 207.222C197.442 216.944 199.848 227.56 200.127 238.743L200.144 238.788Z" fill="#FBBE46"/>
<path fill-rule="evenodd" clip-rule="evenodd" d="M192.778 273.495C196.796 263.174 198.852 251.954 198.577 240.26C198.302 228.565 195.674 217.449 191.151 207.295L215.385 206.769L217.088 272.965L192.778 273.495Z" fill="#0B3048"/>
<path fill-rule="evenodd" clip-rule="evenodd" d="M217.032 270.999L194.938 271.513L191.412 271.576L165.807 272.123L164.161 207.893L193.35 207.235C197.481 217.108 199.895 227.873 200.168 239.237C200.441 250.601 198.578 261.466 194.951 271.483L217.062 271.013L217.032 270.999Z" fill="#F08011"/>
<path fill-rule="evenodd" clip-rule="evenodd" d="M60.8985 188.358C60.8852 188.974 60.8855 189.56 60.8588 190.208L61.3501 210.128L10.1697 211.234L10.1754 211.054L9.02445 165.646C10.3063 164.488 11.6538 163.432 13.1421 162.474C22.9029 156.177 35.4203 155.925 45.5242 161.754C50.7343 164.812 54.869 169.228 57.5211 174.422C59.2969 177.839 60.3978 181.618 60.8123 185.536C60.8123 185.536 60.8123 185.536 60.7988 185.567L60.7931 185.748C60.7604 185.99 60.7895 186.259 60.7877 186.514L60.7994 186.739L60.8035 187.4L60.8344 187.414L60.7939 187.506C60.8095 187.806 60.8385 188.075 60.8811 188.313L60.8985 188.358Z" fill="#3E2819"/>
<path fill-rule="evenodd" clip-rule="evenodd" d="M111.374 155.408C82.9814 156.013 60.3016 169.931 60.7373 186.457C60.7726 187.717 60.941 188.927 61.2154 190.146L60.8393 190.164L61.361 210.098L164.173 207.863L163.651 187.929L163.244 187.934C163.41 187.054 163.5 186.178 163.529 185.275L163.542 185.244L163.552 185.139L163.592 185.046L163.584 184.897L163.679 184.682C163.681 184.426 163.651 184.157 163.64 183.932C162.529 167.769 139.444 155.285 111.503 155.868L111.374 155.408Z" fill="#5F4230"/>
<path fill-rule="evenodd" clip-rule="evenodd" d="M215.386 206.771L193.35 207.237L189.78 207.317L164.174 207.864L163.683 187.944C163.621 187.331 163.59 186.731 163.541 186.087C163.584 185.74 163.582 185.409 163.58 185.079C163.62 184.986 163.612 184.836 163.591 184.717L163.581 184.237C163.583 183.981 163.554 183.712 163.556 183.457L163.561 183.276C163.752 179.404 164.628 175.65 166.196 172.164C168.556 166.791 172.507 162.154 177.63 158.873C187.391 152.576 199.908 152.324 210.012 158.154C211.536 159.043 212.961 160.072 214.285 161.166L215.461 206.767L215.386 206.771Z" fill="#926F59"/>
<path d="M213.423 127.137L8.11177 131.416L10.088 211.039L215.399 206.759L213.423 127.137Z" fill="#0B3048"/>
<path d="M212.19 112.567L8.52892 116.812C4.90296 116.887 2.03626 119.878 2.12595 123.492L2.27418 129.464C2.36387 133.078 5.37599 135.946 9.00195 135.87L212.663 131.625C216.289 131.55 219.156 128.559 219.066 124.945L218.918 118.973C218.828 115.359 215.816 112.491 212.19 112.567Z" fill="#F08011"/>
<path fill-rule="evenodd" clip-rule="evenodd" d="M224.626 350.515L224.787 356.518C224.865 359.776 222.52 362.518 219.442 363.071C219.083 363.133 218.738 363.165 218.407 363.165L14.7303 367.392C14.549 367.385 14.3542 367.41 14.1556 367.359C10.8135 367.173 8.0912 364.402 8.00478 360.995L7.84387 354.991C7.75745 351.584 10.3518 348.694 13.6666 348.356C13.8749 348.301 14.0562 348.307 14.2509 348.283L217.927 344.056C218.259 344.056 218.622 344.068 218.957 344.143C222.085 344.564 224.578 347.271 224.67 350.497L224.626 350.515Z" fill="#F08011"/>
<path d="M216.75 260.424L177.224 261.248L177.742 282.119L217.268 281.295L216.75 260.424Z" fill="#0B3048"/>
<path fill-rule="evenodd" clip-rule="evenodd" d="M200.144 238.788C200.423 249.971 198.551 260.686 194.917 270.553C189.302 285.85 179.422 299.127 166.752 308.945C152.589 319.901 134.887 326.592 115.576 326.973C96.4461 327.361 78.5629 321.557 63.9483 311.329C50.6493 302.045 40.0598 289.19 33.6042 274.048C29.4323 264.269 27.0091 253.609 26.7262 242.35C26.4511 231.242 28.3091 220.558 31.8857 210.739C31.9126 210.677 31.9398 210.616 31.9533 210.586C37.1574 196.39 46.011 183.944 57.4133 174.413C71.9616 162.161 90.6911 154.638 111.281 154.196C131.857 153.785 150.95 160.523 166.121 172.167C177.975 181.219 187.438 193.287 193.35 207.237C197.473 216.959 199.865 227.604 200.144 238.788Z" fill="white"/>
<path d="M113.622 247.518C112.432 247.545 111.418 246.586 111.386 245.4L109.859 183.75C109.828 182.564 110.786 181.556 111.976 181.53C113.166 181.503 114.18 182.461 114.212 183.647L115.739 245.298C115.77 246.484 114.812 247.491 113.622 247.518Z" fill="#0B3048"/>
<path d="M113.624 247.519L62.8023 248.563C61.6125 248.59 60.5977 247.632 60.5663 246.446C60.5349 245.26 61.4928 244.252 62.6827 244.226L113.504 243.181C114.694 243.154 115.709 244.113 115.74 245.299C115.772 246.484 114.814 247.492 113.624 247.519Z" fill="#0B3048"/>
<path d="M211.088 68.0221L6.72032 72.282L7.82628 116.841L212.194 112.581L211.088 68.0221Z" fill="#E53914"/>
<path d="M34.4145 78.5268L30.408 78.6103C26.9308 78.6828 24.1817 81.5507 24.2677 85.016L24.7357 103.873C24.8217 107.339 27.7103 110.089 31.1875 110.016L35.194 109.933C38.6712 109.86 41.4203 106.993 41.3343 103.527L40.8663 84.6701C40.7803 81.2047 37.8917 78.4543 34.4145 78.5268Z" fill="white"/>
<path d="M72.7427 77.7011L68.7362 77.7846C65.259 77.8571 62.5099 80.7251 62.5959 84.1904L63.0639 103.048C63.1499 106.513 66.0385 109.263 69.5157 109.191L73.5222 109.107C76.9994 109.035 79.7485 106.167 79.6625 102.702L79.1945 83.8444C79.1085 80.3791 76.2199 77.6287 72.7427 77.7011Z" fill="white"/>
<path d="M111.041 76.9071L107.034 76.9906C103.557 77.0631 100.808 79.931 100.894 83.3964L101.362 102.253C101.448 105.719 104.337 108.469 107.814 108.397L111.82 108.313C115.297 108.241 118.047 105.373 117.961 101.908L117.493 83.0504C117.407 79.5851 114.518 76.8346 111.041 76.9071Z" fill="white"/>
<path d="M149.339 76.1162L145.332 76.1998C141.855 76.2722 139.106 79.1402 139.192 82.6055L139.66 101.463C139.746 104.928 142.634 107.678 146.112 107.606L150.118 107.522C153.595 107.45 156.345 104.582 156.259 101.117L155.79 82.2595C155.704 78.7942 152.816 76.0438 149.339 76.1162Z" fill="white"/>
<path d="M187.702 75.3377L183.696 75.4212C180.218 75.4937 177.469 78.3616 177.555 81.827L178.023 100.684C178.109 104.149 180.998 106.9 184.475 106.827L188.482 106.744C191.959 106.671 194.708 103.803 194.622 100.338L194.154 81.481C194.068 78.0157 191.179 75.2652 187.702 75.3377Z" fill="white"/>
<path fill-rule="evenodd" clip-rule="evenodd" d="M213.836 67.9732L3.92301 72.317C1.28685 72.3678 -0.609986 69.8133 0.181464 67.3408L15.0248 21.5603C18.6009 10.5688 28.7506 3.05052 40.3482 2.79724L173.998 0.00651997C185.595 -0.24676 196.128 6.86988 200.204 17.7064L217.264 62.85C218.206 65.3148 216.428 67.9396 213.792 67.9904L213.836 67.9732Z" fill="#0B3048"/>
</svg>

<svg xmlns="http://www.w3.org/2000/svg" width="225" height="709" fill="none" viewBox="0 0 225 709"><path fill="#f5f0ec" d="m170.07 116.3 7.63 8 10.76 2.6-8 7.66-2.63 10.75-7.63-8-10.75-2.62 7.99-7.64zm-27.97 23.16 3.83 4 5.37 1.3-3.99 3.83-1.31 5.38-3.83-4-5.37-1.32 3.99-3.83zm-81.64 40.19 1.23 7.8 5.09 5.72-7.5 1.54-5.64 5.5-1.25-7.79-5.09-5.71 7.5-1.55zm120.19-27.4.82 4.55 3.16 3.38-4.55.81-3.38 3.16-.82-4.55-3.16-3.37 4.55-.82z"/><path fill="#0b3048" fill-rule="evenodd" d="m167.68 345.14-102.8 2.12-.9-35.92A86.7 86.7 0 0 0 115.61 327a86 86 0 0 0 51.17-18.03l.93 36.19z" clip-rule="evenodd"/><path fill="#e53914" fill-rule="evenodd" d="M115.58 326.97a86.7 86.7 0 0 1-51.63-15.64l-.99-37.9 102.81-2.24.98 37.75a86 86 0 0 1-51.17 18.03m56.52 189.57c-6.56-5.85-27.5-14.6-51.79-14.1-24.32.55-44.76 10.22-51.02 16.33L64.87 347.3l102.8-2.13 4.4 171.36z" clip-rule="evenodd"/><path fill="#0b3048" fill-rule="evenodd" d="M223.33 515.42c-13.24-19.33-39.98-13.68-51.23 1.12l-4.47-172.45-1.9-74.46 25.6-.54 3.5-.11 22.12-.47 1.92 74.57q.27 9.53.48 19.04c1.3 51.1 2.64 102.2 3.93 153.31zM33.62 274.1l-21.85.47-1.63-63.35 21.78-.47a86 86 0 0 0-5.16 31.62 86 86 0 0 0 6.87 31.7z" clip-rule="evenodd"/><path fill="#f08011" fill-rule="evenodd" d="M200.14 238.79a86 86 0 0 1-5.22 31.76l-29.15.64-102.81 2.24-29.36.62a86 86 0 0 1-6.87-31.7 86 86 0 0 1 5.16-31.61l80.73-1.75.06.02 77.02-1.69 3.57-.08a86 86 0 0 1 6.81 31.52z" clip-rule="evenodd"/><path fill="#482f1e" fill-rule="evenodd" d="m215.38 206.77-22.03.47-3.57.08-25.6.54-51.41 1.12-.06-.03-51.35 1.15-51.18 1.1v-.18l-1.21-48.18c-.25-10.07 6.43-19.52 17.92-27.32q3.6-2.44 7.83-4.66c16.88-8.92 40.8-14.93 67.58-15.99 1.27-.03 2.52-.1 3.81-.12l4.3-.05q2.14-.1 4.29-.13 2.02-.06 4.06-.05c26.84-.08 51.05 4.92 68.36 13.18a78 78 0 0 1 8.04 4.34c11.75 7.28 18.82 16.4 19.07 26.4l.05 2.72 1.18 45.6z" clip-rule="evenodd"/><path fill="#0b3048" fill-rule="evenodd" d="M69.29 518.77c-12.03-14.18-39-18.66-51.21 1.1-1.3-50.86-2.63-101.66-3.94-152.48l-.49-19q-.96-36.94-1.87-73.86l21.85-.47 29.34-.66.98 37.93 5.32 207.4z" clip-rule="evenodd"/><path fill="#feeabf" fill-rule="evenodd" d="m172.1 516.54-32.23 164.24 14.99-.34q62.87-105.28 68.3-163.16l-.04-2.14c-13.3-18.84-39.82-13.2-51.02 1.4" clip-rule="evenodd"/><path fill="#face8d" fill-rule="evenodd" d="m139.88 680.75 32.24-164.24c-6.58-5.82-27.5-14.6-51.8-14.1-24.27.54-44.76 10.22-51.02 16.33l40.63 162.66 29.97-.68z" clip-rule="evenodd"/><path fill="#f5be65" fill-rule="evenodd" d="M109.91 681.43 69.3 518.77c-11.95-14.11-38.74-18.59-51.05.8q-.08.16-.2.31 7.54 57.76 76.85 161.87l14.99-.34z" clip-rule="evenodd"/><path fill="#595b51" fill-rule="evenodd" d="m139.88 680.75-14.86 27.46c9.77.15 19.32-9.1 29.85-27.8z" clip-rule="evenodd"/><path fill="#33343a" fill-rule="evenodd" d="m125.01 708.24 14.87-27.5-29.97.69z" clip-rule="evenodd"/><path fill="#0f1817" fill-rule="evenodd" d="m125.01 708.24-15.1-26.81-14.98.34c11.02 17.48 20.68 26.33 30.1 26.51z" clip-rule="evenodd"/><path fill="#fbbe46" fill-rule="evenodd" d="M200.14 238.79a86 86 0 0 1-5.22 31.76l-131.96 2.88-1.64-63.32 51.33-1.1.06.02 80.6-1.8a86 86 0 0 1 6.82 31.51z" clip-rule="evenodd"/><path fill="#0b3048" fill-rule="evenodd" d="M192.78 273.5a86 86 0 0 0 5.8-33.24 86 86 0 0 0-7.43-32.97l24.23-.52 1.7 66.2z" clip-rule="evenodd"/><path fill="#f08011" fill-rule="evenodd" d="m217.03 271-22.1.51-3.52.07-25.6.54-1.65-64.23 29.19-.65a88 88 0 0 1 6.82 32 88 88 0 0 1-5.22 32.24l22.11-.47z" clip-rule="evenodd"/><path fill="#3e2819" fill-rule="evenodd" d="M60.9 188.36q0 .9-.04 1.85l.49 19.92-51.18 1.1v-.18l-1.15-45.4a31.1 31.1 0 0 1 36.5-3.9 31.1 31.1 0 0 1 15.3 23.79l-.02.03v.18c-.04.24-.01.5-.01.76v.23l.01.66.03.01-.04.1q.03.44.1.8z" clip-rule="evenodd"/><path fill="#5f4230" fill-rule="evenodd" d="M111.37 155.4c-28.39.61-51.07 14.53-50.63 31.06q.05 1.88.48 3.69l-.38.01.52 19.94 102.81-2.24-.52-19.93h-.4q.24-1.3.28-2.66l.01-.03.01-.1.04-.1v-.14l.09-.22q-.01-.39-.04-.75c-1.11-16.16-24.2-28.65-52.14-28.06z" clip-rule="evenodd"/><path fill="#926f59" fill-rule="evenodd" d="m215.39 206.77-22.04.47-3.57.08-25.6.54-.5-19.92q-.08-.89-.14-1.85.05-.52.04-1.01.05-.16.01-.36v-.48c0-.26-.04-.53-.03-.78v-.18a30.7 30.7 0 0 1 14.07-24.4 31.1 31.1 0 0 1 36.66 2.29l1.17 45.6z" clip-rule="evenodd"/><path fill="#0b3048" d="m213.42 127.14-205.3 4.28 1.97 79.62 205.3-4.28z"/><path fill="#f08011" d="M212.19 112.57 8.53 116.8a6.5 6.5 0 0 0-6.4 6.68l.14 5.97A6.6 6.6 0 0 0 9 135.87l203.66-4.25a6.5 6.5 0 0 0 6.4-6.68l-.14-5.97a6.6 6.6 0 0 0-6.73-6.4"/><path fill="#f08011" fill-rule="evenodd" d="m224.63 350.52.16 6a6.5 6.5 0 0 1-6.38 6.65l-203.68 4.22c-.18 0-.38.02-.57-.03A6.56 6.56 0 0 1 8 360.99l-.16-6a6.53 6.53 0 0 1 5.83-6.63c.2-.06.39-.05.58-.08l203.68-4.22a6.66 6.66 0 0 1 6.74 6.44z" clip-rule="evenodd"/><path fill="#0b3048" d="m216.75 260.42-39.53.83.52 20.87 39.53-.82z"/><path fill="#fff" fill-rule="evenodd" d="M200.14 238.79a86 86 0 0 1-5.22 31.76 86.3 86.3 0 0 1-79.34 56.42 86.7 86.7 0 0 1-51.63-15.64 87 87 0 0 1-30.35-37.28 86 86 0 0 1-6.87-31.7 86 86 0 0 1 5.22-31.76 85.6 85.6 0 0 1 25.46-36.18 86.2 86.2 0 0 1 53.87-20.21 87 87 0 0 1 54.84 17.97 87 87 0 0 1 27.23 35.07 86 86 0 0 1 6.8 31.55" clip-rule="evenodd"/><path fill="#0b3048" d="M113.62 247.52a2.2 2.2 0 0 1-2.23-2.12l-1.53-61.65a2.18 2.18 0 0 1 4.35-.1l1.53 61.65a2.2 2.2 0 0 1-2.12 2.22"/><path fill="#0b3048" d="m113.62 247.52-50.82 1.04a2.2 2.2 0 0 1-2.23-2.11 2.2 2.2 0 0 1 2.11-2.22l50.82-1.05a2.2 2.2 0 0 1 2.24 2.12 2.2 2.2 0 0 1-2.12 2.22"/><path fill="#e53914" d="M211.09 68.02 6.72 72.28l1.1 44.56 204.37-4.26z"/><path fill="#fff" d="m34.41 78.53-4 .08a6.26 6.26 0 0 0-6.14 6.4l.47 18.86a6.3 6.3 0 0 0 6.45 6.15l4-.09a6.26 6.26 0 0 0 6.14-6.4l-.46-18.86a6.3 6.3 0 0 0-6.46-6.14m38.33-.83-4 .08a6.26 6.26 0 0 0-6.14 6.41l.46 18.86a6.3 6.3 0 0 0 6.46 6.14l4-.08a6.26 6.26 0 0 0 6.14-6.4l-.47-18.87a6.3 6.3 0 0 0-6.45-6.14m38.3-.8-4 .1a6.26 6.26 0 0 0-6.15 6.4l.47 18.85a6.3 6.3 0 0 0 6.45 6.15l4.01-.09a6.26 6.26 0 0 0 6.14-6.4l-.47-18.86a6.3 6.3 0 0 0-6.45-6.14m38.3-.79-4 .08a6.26 6.26 0 0 0-6.15 6.4l.47 18.86a6.3 6.3 0 0 0 6.45 6.15l4-.09a6.26 6.26 0 0 0 6.15-6.4l-.47-18.86a6.3 6.3 0 0 0-6.45-6.14m38.36-.78-4 .08a6.26 6.26 0 0 0-6.14 6.4l.46 18.86a6.3 6.3 0 0 0 6.45 6.15l4.01-.09a6.26 6.26 0 0 0 6.14-6.4l-.47-18.86a6.3 6.3 0 0 0-6.45-6.14"/><path fill="#0b3048" fill-rule="evenodd" d="M213.84 67.97 3.92 72.32a3.83 3.83 0 0 1-3.74-4.98l14.84-45.78A27.2 27.2 0 0 1 40.35 2.8L174 0a27.4 27.4 0 0 1 26.2 17.7l17.06 45.15a3.78 3.78 0 0 1-3.47 5.14z" clip-rule="evenodd"/></svg>
